-----BEGIN PGP PUBLIC KEY BLOCK-----

mQINBFsvDSkBEADtyFKGhQ/sh9KmVAzivJfMGbasytWkZNdIrwCoxSTEijl2QLyi
E8b5xEOK2+9b3OXF+Nbm+tdfVCaKfoDhXdglxvENSdXA0mKxt4RhKxXAkWHrLfeA
A4RbUj0ndfpJWpoRoEPZTP2a8UXOctUVQP+JzC+D028nawzpSVrXN7UYkszJ5j06
oR6+ZMjpEMbPRnOWRuaJONPvBuTHGDSsD3UPJlWyeUv7+GmcVJzjc8uq1HeX/5Ap
NTrESldIDPgcxfTWhscj1+s8gvW5SqcNQnWSIUtI+Bi2sW9ibj9XlkFJMU7QFV+S
1uF9D8lynZCSDIjnsqSuX3TMgr2CPk7+0eLNFAVrrTUbGwcoyge3d8osJD5PS3z6
COwDlzAXRJECScRo1ynxCxJTLVf6JoGQEFzVc5HSlM8Lx1zm/Al+AYdhdToCQNDF
vLLuHkMqh3OLG3yxS142BUHDrd0KaiY+sxoUQjVjo7PHpLZRJKGZCxSS6vPr9I+o
OTDO2h7rWdTtodmkSz9+NnUD1cGYWwL8j4Cpi4yozg+8Gbtywnm/q0TPMYhyiBbn
hU+sowfmo1RPn2aQnxSS55L7cMTNzP95cU4FQDNzYhget9X5UJJPWdSRcknykMcQ
oAo0IfswMDC7LWf8uObZo/0DQeGBVBx2y/+Ir9dt5MhcrmO/U+fCF+O2xwARAQAB
tBhUZWFib3QgPHRlYWJvdEBnaXRlYS5pbz6JAlQEEwEIAD4CGwMFCwkIBwIGFQoJ
CAsCBBYCAwECHgECF4AWIQR8nmgVJZRoiGLWKvYtmugG7BWS4gUCYrMHDwUJC0Zg
5gAKCRAtmugG7BWS4p7cD/wN2Yv/OOMmiOiG7lqKkIQ0e4amGOkWdlXgAln6BJhD
3TCZMnsX4iAOPZbOXxrtWPoO232j3y3aJyPWIeJepHw8oWkJ4YReVSIaOo7fNhuH
pUKDi7qqgv9cdyyz1NF0apQ72hKe64mJmSRuhuyb7xU4oO1nrApJFXGaF5VFOYrr
vya2mbCpnts6opIJ3GGl3dwKrfGvjq0BuiQrqHds8lhQWMSCQ1S3Duvn2qf6rnbW
55ZxD6pN5tlryw56rw2E3O0FXMN9IplV3WWYvKESYSAH3ugHcjJDXPu0Ty32op1e
jU+DvyFOzQDu93fSc+6td26ZQ2i/bOkqUF58QkW31VDO4G/B3bYDZ/47wXIw4orj
zsx4jDeX+xgpYtW4Sr6///PT1O4EYOK5oJGSQTCfhLRcRcoK4SdqaHgDpyUd8KPb
/E9AQ7x9NwJr/flo2YN7CnYbVy5IY1sIHnvMoSmO9GgGimt7SObE+flKG2YlFRBS
+XEED4FeGB2qqVonQFLAXfzWuMlIijFP0Km9xIbgPxOg62wElbH7XGY5tyd0N6x3
fhKe1izzaWW/69nnQTbPB3OhgOqgG1UyGUvSVgJY2fj4CGKX59TW0SCOr70nZequ
UoDh/r4vNZywOhC08x37y0PKyog4Q2Zvl1HLy3npTJjc1pcFhNt/2aEFIyxnA/bW
AYkCVAQTAQgAPgIbAwULCQgHAgYVCgkICwIEFgIDAQIeAQIXgBYhBHyeaBUllGiI
YtYq9i2a6AbsFZLiBQJe8qUWBQkHhf7tAAoJEC2a6AbsFZLicMAQAO20P2Y+QqWt
SGknE9vNuWy0iy/k69MaN6aOtMlzpRMeyNR7V5nf5Cwc3RMZkQ/RaKADWGx4DiP7
v9LwJ5h4B/srstLgpUYn0CVkLXES4ggedBRE1Y65sQO5GS5i8rYdnmwRB9FuBbqr
xssAca+ypAbt/Dx6XCkREjnLSoNlmFeJU2oyZ5oKctWnkZNLqPv6BPvJKrC6f7TY
rlSO1SOEN3K7h/I9y09w2QjaTNxdSe9N4A49lKB2+YXxKUbbsrSlef5p4aiktqa3
Z0PaddCDAQIxh+728UQSqf1M3z315V4RZ4swGYFYMx8Tc08NOK0rIbBDVcZr5JG3
eRW4gKVlVryGIJ2XQBlxF4eZQr0vSLmGCBBB96g+h8AlRszg/OMqNon8/fbxPmj9
HPtBBpFS50891O+jGLgOiPKcHCqODSClqDLCI1/Mfws5NUVeNGFuaHLzDXOznPis
Ihlmjd8LoOTYzCBwkSiVsIL7uIS79HuTOJOKwwDaXRNNgiO5oW95MeitLpV/Mr/F
2rc6FjpgQQMedyHmadDcvGaz3PofYYIWdV5clH3So0PL3WUYW0JDmSzjHNbU2o0M
lGVafj6zDusP/jWxwR5VkZYq6iGbdxCvf05fVbzGjV56yTrCeIebCvnHpFmLq1W4
qL7RSRe7wTd7Pat17cGJx1YRKm9sV0zMiQJUBBMBCAA+FiEEfJ5oFSWUaIhi1ir2
LZroBuwVkuIFAlsvDSkCGwMFCQPCZwAFCwkIBwIGFQoJCAsCBBYCAwECHgECF4AA
CgkQLZroBuwVkuLDjg//QymSI5ySUOZPfIYk/NWi1qcunPPDEtEUAIGV5w2jlF9m
XCfiWdW7hkB9wod0KBAC0e0yoSPPlR7o8u4MJ0jFJWUrVax6AIpP+POXfpNPDTfm
eWjVqGCupXHddThYurj8vA4BJ9llBxX0FHrAfxYTpxvFuw0M+B4jKDBTAChBHngP
Ttm3C1u7pBdTlFcGAaFkBqnRLn1u4YhO1jgHqGGMxCRwGRp8UN2ySuBmMf0YWq9L
WpyGBYV+fErRDVlPWpcOBAlHZkAt/hfm7vNZI5w9Ew0D/asD46HaPI2eTECQynAD
o5OLJoDTGjeW6mzW/H8JgYJC6sGkAe0ohNVpXHk8agekk3VAQEmsV1wLzGJV3bmp
RgxJuMBVFcj0QVI/LklkGWxh4WdDRDBachAJEBB7QMj2hmSTsEC6m0J0xFej4Y7z
lzrDqcxu4o6JqQTp2PJey3pWV7SkI5PzUXwb4MXxysOXdUoTog+ark3RdfSVFgMv
teQ1Rqo7SIQD+C19YBi1JRaIfByfNbkLp8cxFrywbRHUKW485puECzalCdoUDAYN
HIVFhx+Yquj3brsjx6LJ2rXPzLy2XcFc9hay9mBm4sXlqGA2NgH1dFBlYxdVuitq
KLBCwId4zMb/ZRqz+J09B8DVNTQIMef38uS1ydJw3sEdASLmWTGZp0t/Ofy422a5
Ag0EWy8NKQEQANgvR4yfdll+TkRX5lvgWYFnDj7/eeEwidfo8zO7/dbFzNw5FC2D
M3T9VDX04eGy/wjb0+v5I85oObQBJ0yDM1ir/+p0piBCyMBoYfMZyCiYZipX0GLH
QykrnK6j4goPqrlxAB6oUP+Hzb5MKJbsb7LYfGB670wC+9OnylTimTVZs2uBNm+E
7HButG/YAbPGxTGCrKPmjHfR28ijyflayhemXQ46WktGD1Tu4E0yZS7XZM6UQTgc
U7nGNE7kTB8pYAc/oRQaTQktN8AxD8AxlrlZ5ap5bNX8+eLr9Gm4CZjZIS7/6Cuj
VerK2R5AJXzvtZwLRVP8LVCKG680bLei+/uPhCuiHYvo2B4DLKbTU6ojltXj4Qn7
pwhsLiiFAB+PqeFj8T/puRibOzW7Ay9JQtWMUC1EPybeXKnLTEdNfrg3nIgKLrlZ
VO4VSoNCIV+M/1KLYFLTyYEzmUI4L8XC2QAwLQhF81Jg10COjQEOHn1hqdrm99bV
U00IcPtkbTxw4FoeGD6qJkry3bxRfquTEPGCGTYcTDezEoRbukmgdzk6KW0vn/g6
rYBUL9KbrdV54OV9W7yqPjEyKTKNUbRzzpc6mgIPGXOYpsblhiJQYRHVYJMH264n
d7oA77fAAnynazw0Hp/e9Z57LNmG2ybjUCaB7+xmCBJAarK2M/J1PEbFABEBAAGJ
AjwEGAEIACYCGwwWIQR8nmgVJZRoiGLWKvYtmugG7BWS4gUCYrMHIQUJC0Zg+AAK
CRAtmugG7BWS4lNFEADFLa7tAjo9eeG1kqNp4c0iJI0xqiT5Gvs0KtzJTY0ZafmS
kPzefgbBF1GARTizHDGypSUlV9cwpvvbroTl41aoC1B1vLrIiNNRv34gBZUpDFbL
S1ehwYGYMelik5hdcPtTG4y9v/9EnbQ9cesceeYj8m+61SmWM2eGQH16w2rX92Oe
o0QzSZUOVeok3NDpynOJHy1voxgrFUBbR1twvzTlRlYmsjAfcy3gUTslo93wXYFF
vwdeH+d4p3d9B/rKuz7gMVlNYw+ryWIkDcJq5anTbN2SK/iNydDi8oTKeAqXrgET
HEscACK/ztdR2asqTM452RyywBqB0s32J66u9DdZkyZKvXmUvDwaK7e6Xwwnwk1N
hCzhzShFJ9VcNL+/CHRMy8GT/yqUJa6EGFKuU1WG2VX+eFdlx4bmG/yfZpfS+nuQ
4l2CPj+oZ132kajt53JPsFR6Z6rypToQuKU69E4ssdGNJdtPlTA0RQ+2fwlraQLh
hAXNllWdM0fPw+ZBCE289hvYGUId+hnx6ixexnNKWnEeESrACcEvM3hY2QoaDdAM
AUxB/wahzXFUw86mPKQWcGx56FO6hteF1vWezmKT8jnj5pdc/t/ngkDD/RlcqWyU
l7RxH6WhiVhNPQh4r0dasZX0LadSE6W1NFh6+2WRcUUUrDPzSHnBhkqJiyN2ZrkC
DQRbLw2xARAA2jnRSZFdkcAwygf8BoyG9HurVqFb0t5SRZHEjFIl6wmdvlk13Ksz
vyzRJ+8IEL3QQtdwTKZAMYT9HamclvwiiF92/12HwsTK1Ijn/ayAsWmHFhXvqlEa
Ktm/39Mj6M4b6wPkl5vy/TYoxj3CDGl8gWQHo/RmYOcDl61Twswt4uonUm4fO9V8
x19mhxbap6CDsh6Eh64SxXRkyXaY1UPrd4V/TslyBsLz5L5sgIVVTvnNitSAnGhy
77CwUiv3DkvoK6lc7/JvH1zf50/v3uequhTABeMuhdD5Vz7Zq6GYOSkDh/gPCfgB
eL0W/vpWSVLyQC0dkC94yxN9R5SHKcae++IFFhSa3CNPiBLhZ/6dl3K1MV4rJ0CY
++RbYNHdrmQFA95HpiSfqcOGBZU5YfV+ErlsVqZFqBMP7edZtgT9kKW8NPQdLdm4
aClzBATnkI0wgAozq2FBacFosuNEUVCWap6vaJ1L0cJeIC7kzOmp3T/W/klECfxH
enEIoH5XlsIugHMAtdnWzAZv8LnLfCo7FsuUZXD7PhNvavNJUdQ2EaKC/DSy0++6
Il1wKvt26RPaMM0JtEdCO3AMoXVtfqLp0Er4FBUpHV6OtaVhlnqOhHh6O/AlmX8z
90Okc/u+UBtwhgcXFyM3oA9JKEAIthFBi9871frBAbXS8Z9YJESLpQ0AEQEAAYkE
cgQYAQgAJgIbAhYhBHyeaBUllGiIYtYq9i2a6AbsFZLiBQJiswc/BQkLRmCOAkAJ
EC2a6AbsFZLiwXQgBBkBCAAdFiEEzGSx22ervuyrJLZFX8NGMpdT9LAFAlsvDbEA
CgkQX8NGMpdT9LDFUw//ba+x5E0Invkjzqy/+gSa9f3AIVOV7+fCJDLLgZjzurqp
jGq+YL723m2mn6awezIyt29qcE3mh750pHkQ6jM6RFost7ATdUtcHnV5xDphmAfA
k8g84Fdw5hh257wpkL/WoLYhIGhqkdcWmQpFEJo4UyFZ6QE8sdeJGYMXC2ISmMmy
NcO2K2TyXBhLfxDVGUETSmnNv7bvxqojZ2dKaQnNJezfWTqG6KoMwVyhg22Cfe1j
vF5xqqxytAg1FWqNo4vsXem4vWi129LDXkRnjilamh2INjQPynZz00I/CZ5kmmZq
bxSSYi14gf84zVqLmDzTUUInRoYx2JR4Dc/5gpEQR4ToYj8M9roteRkpfHVHnDTJ
CWqJ/vTQJgNi+zdCeTwNWQeMsK4HNWUo8XUcUxhlazNB/tkeCCwP4BGFkTy8BKTn
pF+FZXNjBGo0gPnhpQVRf0G+QfPruAHoMLM9SMvsmMSf6sUktscA1byNbrYn1Hxf
wF4DORb1tftypqWjE6a//ih7VCHZDPw0+tifY/mgk3Ml8ABZZYthbG72QRxKIq/x
KiXRY8YV152Zm/OcNv3iU2qUEOZcQM3rq0a4bq5fgIvnDUqSQvvowLrCCfOpgO4m
T8hInNhvd4r3MqJYRiZ5HlAZUyboukqZOPDXB5TZfh95MDUk/gyCJRyuUcRu59zy
aRAApu2sdj46xHQlrUYF3K8jBSnRjc9A80qf6mWOezdQZ9AaRcCb10k3fE5uB7QF
MVECcWObWaIWEuEE/V6FmcU2cp3jlQuOkF58VJTHkfoCxwjFKq23QtA+PXPF6pZF
6bUcVBvBiO0hYTsv3kT8SLYQy9wCV2ATDtiqg4YMveDmzBsPQx9bNrsiZy6pvy0F
eYvhLHd8bsPrsKJHesvEWJGNYZt0MWk1FrE7VpJ1QXEbTXCVA4u+VAl8jKkl9rQw
xVzZa9bzypnMIsIInPUdw9fA7h2nNNaK4mCTmerXGPVcpObxpQ8xX+abYHtZlnNM
AWZG6SkXmxV2eifsq3iregHNVN4GFj5LddfRMhdQ7sx2c8K5vY4fTlvDMYKXLlY0
YBP9NCrQVqIl4oZpiXT3tFb2p680QdZwcqHqpVHDwVTYdjEvDvTatL9yJl+4s3VE
AYcmbSs1AEiOtMSMptv6QAw0D8CwdnqX6Z0vQJcSdCwnKJkrSmt9zomgbqbBhAyb
E032YVWnP0TTCq1xEwxis0y0Nm2if0prRD4ZSnTC6EUgTvrPD8C6xSSXre3b8O2k
dGu3fNex4eJZ7Sjjh77B2ZvGjasZweqbriD4MqDgpDvrSNYLYZeeyAJUV9xRNL8D
xirqL8vfY6CqMUk73+BR/STDQTnykzBvEOkhttycwM9x6Fw=
=zsFP
-----END PGP PUBLIC KEY BLOCK-----
